packages/icons/svg/Fill/trash.svg

<svg width="24" height="24" viewBox="0 0 24 24" fill="none" xmlns="http://www.w3.org/2000/svg">
<g id="Icon/Fill/trash">
<path id="Mask" fill-rule="evenodd" clip-rule="evenodd" d="M10 4.32757C10 4.17257 10.214 3.99957 10.5 3.99957H13.5C13.786 3.99957 14 4.17257 14 4.32757V5.99957H10V4.32757ZM21 5.99957H20H16V4.32757C16 3.04357 14.879 1.99957 13.5 1.99957H10.5C9.121 1.99957 8 3.04357 8 4.32757V5.99957H4H3C2.45 5.99957 2 6.45057 2 6.99957C2 7.54957 2.45 7.99957 3 7.99957H4V18.9996C4 20.6546 5.346 21.9996 7 21.9996H17C18.654 21.9996 20 20.6546 20 18.9996V7.99957H21C21.55 7.99957 22 7.54957 22 6.99957C22 6.45057 21.55 5.99957 21 5.99957Z" fill="#000000"/>
</g>
</svg>

<svg fill="none" height="24" viewBox="0 0 24 24" width="24" xmlns="http://www.w3.org/2000/svg"><path clip-rule="evenodd" d="m10 4.32758c0-.155.214-.328.5-.328h3c.286 0 .5.173.5.328v1.672h-4zm11 1.67193h-1-4v-1.672c0-1.284-1.121-2.328-2.5-2.328h-3c-1.37898 0-2.49998 1.044-2.49998 2.328v1.672h-4-1c-.55 0-1 .451-1 1 0 .55.45 1 1 1h1v10.99999c0 1.655 1.346 3 3 3h9.99998c1.654 0 3-1.345 3-3v-10.99999h1c.55 0 1-.45 1-1 0-.549-.45-1-1-1z" fill="#6b7280" fill-rule="evenodd"/></svg>
